X:1
T:Lend a Hand
T:Lend a Hand
T:Carey Boggess
T:Julia Anna Wolcott, 1889
T:Public Domain Courtesy of the Cyber Hymnal™
T:Public Domain Courtesy of the Cyber Hymnal™
C:Carey Boggess
Z:Public Domain
Z:Courtesy of the Cyber Hymnal™
%%score ( 1 2 ) ( 3 4 )
L:1/8
Q:1/4=97
M:4/4
K:C
V:1 treble 
V:2 treble 
V:3 bass 
V:4 bass 
V:1
 [CE]>[DF] | [EG]2 [CE]>[DF] [EG]2 [Ge]>[Ge] | (dc) [GB]>[FA] [EG]2 [CE]>[EG] | %3
w: 1.~Lend a|hand! lend a hand! in the|work * for the world! Place words|
w: 2.~There are|eyes that are weep- ing where|none * wipe the tear; There hearts|
w: 3.~There are|lips that are burn- ing where|none * hold the cup; There child-|
w: 4.~Lend a|hand! lend a hand! there is|com- * ing a day Wh- He|
 [DF]2 [B,D]>[DF] [GB]2 [FA]>[EG] | [DF]2 [EG]>[DF] [CE]2 [CE]>[DF] | %5
w: in your ban- ner, ne’er let|it be furled Whi- le pain|
w: that are break- ing for tid-|ings of cheer; There are ners|
w: ren who starve for a bit|and a sup; There are that|
w: who shall weigh us, to each|one will say, “Didst thou ev-|
 [EG]2 [CE]>[DF] [EG]2 [Ge]>[Ge] | (dc) [GB]>[FA] [EG]2 [Ec]>[Ec] | %7
w: and sad- ness hold sway in|the * world, Lend a hand! lend|
w: would turn from their sins were|you * near, Lend a hand! lend|
w: are sink- ing, your hand might|hold * up, Lend a hand! lend|
w: ery bro- ther thou couldst in|the * way?” Lend a hand! lend|
 [Fc]2 [Ec]>[Ec] [Fc]2 [^DB]>[DA] | [EG]2 [FA]>[FB] [Ec]2 ||"^Refrain" G>G | (z2 [EG]>)[EA] x6 | %11
w: a hand! in the work for|the world! * *|||
w: a hand! in the work for|the world! Lend a|hand! Lend|* a|
w: a hand! in the work for|the world! * *|||
w: a hand! in the work for|the world! * *|||
 B6 [FG]>[FA] | [FB]2 [DB]>[Ec] [Fd]2 [Ge]>[Fd] | c6 c>d | (z2 c>)d x6 | (z2 [^DB]>)[DA] x6 | %16
w: |||||
w: hand! Lend a|hand in the work for the|world! Lend a|* hand!|* Lend|
w: |||||
w: |||||
 [EG]2 [DB]>[Ec] [Fd]2 [FA]>[FB] | [Ec]6 |] %18
w: ||
w: a hand! Lend a hand in|the|
w: ||
w: ||
V:2
 x2 | x8 | A2 x6 | x8 | x8 | x8 | A2 x6 | x8 | x6 || x2 | (c6 E>E E2) | (F2 F>F F2) x2 | x8 | %13
 (E2 E>F E2) x2 | (c6 E>E F2) | (c6 E>E F2) | x8 | x6 |] %18
V:3
 [C,G,]>[C,G,] | [C,C]2 [C,G,]>[C,G,] [C,C]2 [C,C]>[C,C] | %2
w: ~ ~|~ ~ ~ ~ ~ ~|
 [F,C]2 [F,C]>[F,C] [C,C]2 [C,G,]>[C,G,] | [G,,G,]2 [G,,G,]>[G,,G,] [G,,G,]2 [G,,G,]>[G,,G,] | %4
w: ~ ~ ~ ~ ~ ~|~ ~ ~ ~ ~ ~|
 [G,,G,]2 [G,,G,]>[G,,G,] [C,G,]2 [C,G,]>[C,G,] | [C,C]2 [C,G,]>[C,G,] [C,C]2 [C,C]>[C,C] | %6
w: ~ ~ ~ ~ ~ ~|~ ~ ~ ~ ~ ~|
 [F,C]2 [F,C]>[F,C] [C,C]2 [B,_C]>[B,C] | [A,C]2 [G,_B,]>[G,B,] [F,A,]2 [^F,C]>[F,C] | %8
w: ~ ~ ~ ~ ~ ~|~ ~ ~ ~ ~ ~|
 [G,C]2 [G,B,]>[G,D] [C,C]2 || G,2 | C,2 [C,G,]>[C,G,] [C,G,]2 [C,C]>[C,C] x2 | %11
w: ~ ~ ~ ~|Lend|a hand in the work for|
 [G,D]2 [G,D]>[G,D] [G,D]2 [G,B,]>[G,C] | [G,D]2 [G,D]>[G,C] [G,B,]2 [G,B,]>[G,B,] | %13
w: the world! ~ ~ ~ ~|~ ~ ~ ~ ~ Lend|
 [C,C]2 [C,G,]>[C,A,] [C,G,]2 C,2 | C,2 [_B,C]>[B,C] [A,C]2 [A,C]2 x2 | %15
w: a hand! ~ ~ Lend|a hand! ~ ~ Lend|
 [A,C]2 [G,_B,]>[G,B,] [F,A,]2 [^F,C]>[F,C] x2 | [G,C]2 G,>G, [G,,B,]2 [G,,B,]>[G,,C] | [C,G,]6 |] %18
w: a hand! * * * *|||
V:4
 x2 | x8 | x8 | x8 | x8 | x8 | x8 | x8 | x6 || x2 | x10 | x8 | x8 | x8 | x10 | x10 | x2 G,>G, x4 | %17
 x6 |] %18

